assets/Star and crescent/Flat/star_and_crescent_flat.svg

<svg width="32" height="32" viewBox="0 0 32 32" fill="none" xmlns="http://www.w3.org/2000/svg">
<rect x="30" y="30" width="28" height="28" rx="4" transform="rotate(-180 30 30)" fill="#8D65C5"/>
<path d="M22.8239 24.485C22.9336 24.4226 23 24.3054 23 24.1791C23 23.9172 22.7271 23.7432 22.4837 23.8398C21.4122 24.265 20.2351 24.5 19 24.5C14.0294 24.5 10 20.6944 10 16C10 11.3056 14.0294 7.5 19 7.5C20.2351 7.5 21.4122 7.73498 22.4837 8.1602C22.7271 8.25679 23 8.08275 23 7.82087C23 7.69462 22.9336 7.57736 22.8239 7.51497C21.1349 6.5549 19.1388 6 17 6C10.9249 6 6 10.4772 6 16C6 21.5228 10.9249 26 17 26C19.1388 26 21.1349 25.4451 22.8239 24.485Z" fill="white"/>
<path d="M21.6121 13.2271C21.5662 13.1342 21.4338 13.1342 21.3879 13.2271L20.5005 15.0253C20.4823 15.0622 20.4471 15.0878 20.4063 15.0937L18.4219 15.382C18.3194 15.3969 18.2785 15.5229 18.3527 15.5952L19.7886 16.9949C19.8181 17.0236 19.8315 17.065 19.8245 17.1056L19.4856 19.0819C19.4681 19.184 19.5752 19.2619 19.6669 19.2137L21.4418 18.2806C21.4782 18.2614 21.5218 18.2614 21.5582 18.2806L23.3331 19.2137C23.4248 19.2619 23.5319 19.184 23.5144 19.0819L23.1755 17.1055C23.1685 17.065 23.1819 17.0236 23.2114 16.9949L24.6473 15.5952C24.7215 15.5229 24.6806 15.3969 24.5781 15.382L22.5937 15.0937C22.5529 15.0878 22.5177 15.0622 22.4995 15.0253L21.6121 13.2271Z" fill="white"/>
</svg>

<svg xmlns="http://www.w3.org/2000/svg" width="32" height="32" fill="none"><rect width="28" height="28" x="30" y="30" fill="#8D65C5" rx="4" transform="rotate(-180 30 30)"/><path fill="#fff" d="M22.824 24.485a.35.35 0 0 0 .176-.306c0-.262-.273-.436-.516-.34A9.43 9.43 0 0 1 19 24.5c-4.97 0-9-3.806-9-8.5s4.03-8.5 9-8.5a9.43 9.43 0 0 1 3.484.66c.243.097.516-.077.516-.34a.351.351 0 0 0-.176-.305A11.77 11.77 0 0 0 17 6C10.925 6 6 10.477 6 16s4.925 10 11 10c2.139 0 4.135-.555 5.824-1.515Z"/><path fill="#fff" d="M21.612 13.227a.125.125 0 0 0-.224 0l-.888 1.798a.125.125 0 0 1-.094.069l-1.984.288a.125.125 0 0 0-.07.213l1.437 1.4c.03.029.042.07.035.11l-.338 1.977c-.018.102.09.18.18.132l1.776-.933c.036-.02.08-.02.116 0l1.775.933a.125.125 0 0 0 .181-.132l-.338-1.977a.125.125 0 0 1 .035-.11l1.436-1.4a.125.125 0 0 0-.069-.213l-1.984-.288a.125.125 0 0 1-.095-.069l-.887-1.798Z"/></svg>
